assets/icons/ui/mic.svg

<?xml version="1.0" encoding="UTF-8" standalone="no"?>
<!DOCTYPE svg PUBLIC "-//W3C//DTD SVG 1.1//EN" "http://www.w3.org/Graphics/SVG/1.1/DTD/svg11.dtd">
<svg width="100%" height="100%" viewBox="0 0 48 48" version="1.1" xmlns="http://www.w3.org/2000/svg" xmlns:xlink="http://www.w3.org/1999/xlink" xml:space="preserve" xmlns:serif="http://www.serif.com/" style="fill-rule:evenodd;clip-rule:evenodd;stroke-linejoin:round;stroke-miterlimit:2;">
    <g transform="matrix(0.05,0,0,0.05,0,48.3)">
        <path d="M390,-429.79C366,-455.65 354,-486.72 354,-523L354,-769C354,-803.167 366.147,-832.543 390.44,-857.13C414.733,-881.71 444.567,-894 479.94,-894C515.313,-894 545.333,-881.71 570,-857.13C594.667,-832.543 607,-803.167 607,-769L607,-523C607,-486.72 594.93,-455.65 570.79,-429.79C546.657,-403.93 516.49,-391 480.29,-391C444.097,-391 414,-403.93 390,-429.79ZM441,-78L441,-218C361.667,-226 296,-258.837 244,-316.51C192,-374.183 166,-443.013 166,-523L246,-523C246,-459 268.79,-404.667 314.37,-360C359.957,-315.333 415.29,-293 480.37,-293C545.457,-293 600.667,-315.38 646,-360.14C691.333,-404.907 714,-459.193 714,-523L794,-523C794,-443.007 768,-374.177 716,-316.51C664,-258.837 598.667,-226.033 520,-218.1L520,-78L441,-78ZM505.5,-494.06C511.833,-502.107 515,-511.753 515,-523L515,-768.87C515,-778.023 511.57,-786 504.71,-792.8C497.857,-799.6 489.62,-803 480,-803C470.387,-803 462.15,-799.6 455.29,-792.8C448.43,-786 445,-778.023 445,-768.87L445,-523C445,-511.753 448.203,-502.107 454.61,-494.06C461.01,-486.02 469.51,-482 480.11,-482C490.703,-482 499.167,-486.02 505.5,-494.06Z" style="fill-rule:nonzero;"/>
    </g>
</svg>

<svg xmlns="http://www.w3.org/2000/svg" height="48px" viewBox="0 -960 960 960" width="48px" fill="#000000"><path d="M390-429.79q-36-38.79-36-93.21v-246q0-51.25 36.44-88.13Q426.88-894 479.94-894T570-857.13q37 36.88 37 88.13v246q0 54.42-36.21 93.21-36.2 38.79-90.5 38.79Q426-391 390-429.79ZM480-643ZM441-78v-140q-119-12-197-98.51T166-523h80q0 96 68.37 163 68.38 67 166 67Q578-293 646-360.14q68-67.15 68-162.86h80q0 119.99-78 206.49Q638-230 520-218.1V-78h-79Zm64.5-416.06Q515-506.13 515-523v-245.87q0-13.73-10.29-23.93Q494.43-803 480-803q-14.42 0-24.71 10.2Q445-782.6 445-768.87V-523q0 16.87 9.61 28.94 9.6 12.06 25.5 12.06 15.89 0 25.39-12.06Z"/></svg>
